X:150
T:Waltzes simple chords 50
M:3/4
L:1/8
K:Bm
A2 [d2D,2F,2A,2] d2 | e2 [f2D,2F,2A,2] e2 | d2 [G2G,2B,2D2] B2 | B2 [B2G,2B,2D2]<B2 | B2 [A2A,2C2E2] c3 |
B [A2A,2C2E2] c2 | A2 [g2A,2C2E2G2] f2 | e2 [f4D,4F,4A,4] | A2 [d2D,2F,2A,2] d2 |
e2 [f2D,2F,2A,2] e2 | d2 [G2G,2B,2D2] B2 | B2 [B2E,2G,2B,2]<B2 | B2 [A2A,2C2E2] c3 |
B [A2A,2C2E2] c2 | A2 [g2A,2C2E2G2] f2 | e2 [d4D,4F,4A,4] | de [f6D,6F,6A,6] |
[a6B,6D6F6] | [a2D,2F,2A,2]>g2 | f2 [e2B,2D2F2] f4 | [D,2F,2A,2] A2 |
A2 [d2D,2F,2A,2] e2 | f2 [g2G,2B,2D2] B2 | e2 [d2A,2C2E2G2] c2 | AA [d2D,2F,2A,2] d2 |
e2 [f2D,2F,2A,2] e2 | d2 [G2G,2B,2D2] B2 | B2 [B2E,2G,2B,2]<B2 | B2 [A2A,2C2E2] c3 |
B [A2A,2C2E2] c2 | A2 [g2A,2C2E2G2] f2 | e2 [d4D,4F,4A,4] |


